!!!OTL: 189. Sher
!!!Genre:	Sher
!!!Mode:	Minor
!!!Listening/dance:	dance
!!!:	*g:
!!!One_Mode:	no
**kern
*thru
*I"P1
!!pagebreak:original
*clefG2
*k[b-e-]
!!!Begin-Modulation
*B-:
*M2/4
*>A
!LO:TX:a:i:t=Bb-major
8b-
=1
(16b-LL
16ddJ)
8ddJ
16ddLL
16ccJ
8b-J
=2
4b-
8.ccTL
16b-Jk
=3
(16b-LL
16ddJ)
8ddJ
16ddLL
16ccJ
8b-J
=4
4b-
8r
8dd
=5
(16ddLL
16ffJ
8ee-J)
16ee-LL
16ddJ
8ccJ
!!linebreak:original
=6
4cc
4dd
=7
8ee-L
8ffJ
8ddL
8b-J
=8
(4.ccT
8b-)
=9
8ddL
8ddJ
16ddLL
16ccJ
8b-J
=10
4b-
8.ccTL
16b-Jk
=11
(16b-LL
16ddJ)
8ddJ
16ddLL
16ccJ
8b-J
!!linebreak:original
=12
4b-
4r
=13
8fL
24b-L
24cc
24b-JJ
8aL
8b-J
=14
8ccL
8b-J
4dd
!!!End-Modulation
*B-:
*>B
=18||
!LO:TX:a:i:t=Bb-major
8ddL
16ffL
16ffJJ
8eenL
8ffJ
=19
8ddL
8b-J
8ccL
8b-J
=20
8ddL
16ffL
16ffJJ
8eenL
8ffJ
=21
8ddL
8b-
8cc
8b-J
!!!End-Modulatoin
!!!Begin-Modulation
*-
